X: 10011
T: the MILLER OF DRONE
Q: "Slowish"
R: strathspey
B: "Edinburgh Repository of Music" v.1 p.1 #1
F: http://digital.nls.uk/special-collections-of-printed-music/pageturner.cfm?id=87776133
Z: 2015 John Chambers <jc:trillian.mit.edu>
M: C
L: 1/16
K: Bm
f>e |\
dB3 B3d A3BA2F2 | DD3 D3f {f}e4 e2fe |\
dB3B3d A3BA3F | G3BA3c {c}d4 d2fe |
dB3B3d A3BA2F2 | DD3 g3f {f}e4 e2fg |\
a3ef3c d3AB3F | AA3A3c | d4d2 |]
f>g |\
a3ff2d'2 a2a2 bagf | a3ff2d'2 b4b2d'2 |\
a3ff2d'2 a2a2 bagf | g3ef3d B4B2f>g |
a2f2f2d'2 a2a2 bagf | a2f2f2d'2 b4b2c'2 |\
(3(d'2c'2b2) (3(a2b2c'2) (3(d'2a2g2) (3(f2e2d2) | g3ef3d | B4B2 |]
